svg/speedometer_medium.svg

<svg xmlns="http://www.w3.org/2000/svg" viewBox="0 0 24 24"><path d="M12 1.38 9.14 12.06c-.34 1.04-.1 2.23.72 3.06a3.01 3.01 0 0 0 4.25 0c.79-.79 1.05-1.92.78-2.91m-.29-8.86.62 2.33A7.99 7.99 0 0 1 20 13c0 2.21-.89 4.21-2.34 5.65h-.01a.996.996 0 0 0 0 1.41c.39.39 1.03.39 1.42.01A9.97 9.97 0 0 0 22 13c0-4.62-3.14-8.5-7.4-9.65m-5.2.01C5.15 4.5 2 8.4 2 13c0 2.76 1.12 5.26 2.93 7.07.39.38 1.02.38 1.41-.01a.996.996 0 0 0 0-1.41A7.95 7.95 0 0 1 4 13c0-3.35 1.94-6.14 4.79-7.35"/></svg>

<?xml version="1.0" encoding="UTF-8"?><!DOCTYPE svg PUBLIC "-//W3C//DTD SVG 1.1//EN" "http://www.w3.org/Graphics/SVG/1.1/DTD/svg11.dtd"><svg xmlns="http://www.w3.org/2000/svg" xmlns:xlink="http://www.w3.org/1999/xlink" version="1.1" id="mdi-speedometer-medium" width="24" height="24" viewBox="0 0 24 24"><path d="M12 1.38L9.14 12.06C8.8 13.1 9.04 14.29 9.86 15.12C11.04 16.29 12.94 16.29 14.11 15.12C14.9 14.33 15.16 13.2 14.89 12.21M14.6 3.35L15.22 5.68C18.04 6.92 20 9.73 20 13C20 15.21 19.11 17.21 17.66 18.65H17.65C17.26 19.04 17.26 19.67 17.65 20.06C18.04 20.45 18.68 20.45 19.07 20.07C20.88 18.26 22 15.76 22 13C22 8.38 18.86 4.5 14.6 3.35M9.4 3.36C5.15 4.5 2 8.4 2 13C2 15.76 3.12 18.26 4.93 20.07C5.32 20.45 5.95 20.45 6.34 20.06C6.73 19.67 6.73 19.04 6.34 18.65C4.89 17.2 4 15.21 4 13C4 9.65 5.94 6.86 8.79 5.65" /></svg>
